plasma/desktoptheme/Arc-Dark/icons/go.svg

<svg xmlns="http://www.w3.org/2000/svg" width="32" height="32" version="1.1">
 <g id="22-22-go-home" transform="translate(-465.0004,83.003354)">
  <path style="opacity:0.001" d="m 465.0004,-105.00336 h 22 v 22.000003 h -22 z"/>
  <path style="fill:#d3dae3" d="m 468.0004,-94.00336 h 2 v 8 h 5 v -4 h 2 v 4 h 5 v -8 h 2 l -8,-8 z"/>
 </g>
 <g id="22-22-go-up" transform="translate(-457.0004,83.003357)">
  <path style="opacity:0.001" d="m 489.0004,-105.00336 v 22 h 22 v -22 z"/>
  <path style="fill:#d3dae3" d="m 491.5004,-93.976987 2.11644,2.123305 4.36736,-4.379438 v 10.229758 h 2.99342 v -10.264919 l 4.40439,4.414599 2.11839,-2.123305 -8,-8.026373 z"/>
 </g>
 <g id="22-22-go-down" transform="matrix(1,0,0,-1,-425.0004,-105.00336)">
  <path style="opacity:0.001" d="m 489.0004,-105.00336 v 22 h 22 v -22 z"/>
  <path style="fill:#d3dae3" d="m 491.5004,-93.976987 2.11644,2.123305 4.36736,-4.379438 v 10.229758 h 2.99342 v -10.264919 l 4.40439,4.414599 2.11839,-2.123305 -8,-8.026373 z"/>
 </g>
 <g id="22-22-go-previous" transform="translate(-441.0004,83.003357)">
  <path style="opacity:0.001" d="m 537.0004,-105.00336 h 22 v 22 h -22 z"/>
  <path style="fill:#d3dae3" d="m 548.02677,-102.50336 2.12331,2.11644 -4.37944,4.36736 h 10.22976 v 2.99342 h -10.26492 l 4.4146,4.40439 -2.12331,2.11839 -8.02637,-8 z"/>
 </g>
 <g id="22-22-go-next" transform="matrix(-1,0,0,1,687.0004,83.003357)">
  <path style="opacity:0.001" d="m 537.0004,-105.00336 h 22 v 22 h -22 z"/>
  <path style="fill:#d3dae3" d="m 548.02677,-102.50336 2.12331,2.11644 -4.37944,4.36736 h 10.22976 v 2.99342 h -10.26492 l 4.4146,4.40439 -2.12331,2.11839 -8.02637,-8 z"/>
 </g>
 <g id="go-home" transform="translate(3.4089999e-7,1.88644e-6)">
  <path style="opacity:0.001" d="M -6.8179997e-7,-4.77288e-6 H 32 V 32.000001 H -6.8179997e-7 Z"/>
  <path style="fill:#d3dae3" d="m 3.9999999,16 h 3 V 28 H 14 v -6 h 4 v 6 h 7 V 16 h 3 L 16,4 Z"/>
 </g>
 <g id="go-up" transform="translate(31.999999,1.88644e-6)">
  <path style="opacity:0.001" d="M 1.3182e-6,-4.77288e-6 V 31.999996 H 32.000002 V -4.77288e-6 Z"/>
  <path style="fill:#d3dae3" d="M 14.658203,6.5175781 4.1582031,16.017578 6.8417969,18.982422 14,12.505859 V 28 h 4 V 12.505859 l 7.158203,6.476563 2.683594,-2.964844 -10.5,-9.4999999 L 16,5.3 Z"/>
 </g>
 <g id="go-down" transform="matrix(1,0,0,-1,64,31.999993)">
  <path style="opacity:0.001" d="M 1.3182e-6,-4.77288e-6 V 31.999996 H 32.000002 V -4.77288e-6 Z"/>
  <path style="fill:#d3dae3" d="M 14.658203,6.5175781 4.1582031,16.017578 6.8417969,18.982422 14,12.505859 V 28 h 4 V 12.505859 l 7.158203,6.476563 2.683594,-2.964844 -10.5,-9.4999999 L 16,5.3 Z"/>
 </g>
 <g id="go-previous" transform="matrix(0,1,1,0,96.000007,-4.22712e-6)">
  <path style="opacity:0.001" d="M 1.3182e-6,-4.77288e-6 V 31.999996 H 32.000002 V -4.77288e-6 Z"/>
  <path style="fill:#d3dae3" d="M 14.658203,6.5175781 4.1582031,16.017578 6.8417969,18.982422 14,12.505859 V 28 h 4 V 12.505859 l 7.158203,6.476563 2.683594,-2.964844 -10.5,-9.4999999 L 16,5.3 Z"/>
 </g>
 <g id="go-next" transform="rotate(90,80.000003,79.999999)">
  <path style="opacity:0.001" d="M 1.3182e-6,-4.77288e-6 V 31.999996 H 32.000002 V -4.77288e-6 Z"/>
  <path style="fill:#d3dae3" d="M 14.658203,6.5175781 4.1582031,16.017578 6.8417969,18.982422 14,12.505859 V 28 h 4 V 12.505859 l 7.158203,6.476563 2.683594,-2.964844 -10.5,-9.4999999 L 16,5.3 Z"/>
 </g>
</svg>

<?xml version="1.0" encoding="UTF-8"?>
<svg width="32" height="32" version="1.1" xmlns="http://www.w3.org/2000/svg">
 <g id="22-22-go-home" transform="translate(-465 83.003)">
  <path d="m465-105h22v22h-22z" opacity=".001"/>
  <path d="m468-94.003h2v8h5v-4h2v4h5v-8h2l-8-8z" fill="#d3dae3"/>
 </g>
 <g id="22-22-go-up" transform="translate(-457 83.003)">
  <path d="m489-105v22h22v-22z" opacity=".001"/>
  <path d="m491.5-93.977 2.1164 2.1233 4.3674-4.3794v10.23h2.9934v-10.265l4.4044 4.4146 2.1184-2.1233-8-8.0264z" fill="#d3dae3"/>
 </g>
 <g id="22-22-go-down" transform="matrix(1 0 0 -1 -425 -105)">
  <path d="m489-105v22h22v-22z" opacity=".001"/>
  <path d="m491.5-93.977 2.1164 2.1233 4.3674-4.3794v10.23h2.9934v-10.265l4.4044 4.4146 2.1184-2.1233-8-8.0264z" fill="#d3dae3"/>
 </g>
 <g id="22-22-go-previous" transform="translate(-441 83.003)">
  <path d="m537-105h22v22h-22z" opacity=".001"/>
  <path d="m548.03-102.5 2.1233 2.1164-4.3794 4.3674h10.23v2.9934h-10.265l4.4146 4.4044-2.1233 2.1184-8.0264-8z" fill="#d3dae3"/>
 </g>
 <g id="22-22-go-next" transform="matrix(-1 0 0 1 687 83.003)">
  <path d="m537-105h22v22h-22z" opacity=".001"/>
  <path d="m548.03-102.5 2.1233 2.1164-4.3794 4.3674h10.23v2.9934h-10.265l4.4146 4.4044-2.1233 2.1184-8.0264-8z" fill="#d3dae3"/>
 </g>
 <g id="go-home" transform="translate(3.409e-7 1.8864e-6)">
  <path d="m-6.818e-7 -4.7729e-6h32v32h-32z" opacity=".001"/>
  <path d="m4 16h3v12h7v-6h4v6h7v-12h3l-12-12z" fill="#d3dae3"/>
 </g>
 <g id="go-up" transform="translate(32 1.8864e-6)">
  <path d="m1.3182e-6 -4.7729e-6v32h32v-32z" opacity=".001"/>
  <path d="m14.658 6.5176-10.5 9.5 2.6836 2.9648 7.1582-6.4766v15.494h4v-15.494l7.1582 6.4766 2.6836-2.9648-10.5-9.5-1.3418-1.2176z" fill="#d3dae3"/>
 </g>
 <g id="go-down" transform="matrix(1 0 0 -1 64 32)">
  <path d="m1.3182e-6 -4.7729e-6v32h32v-32z" opacity=".001"/>
  <path d="m14.658 6.5176-10.5 9.5 2.6836 2.9648 7.1582-6.4766v15.494h4v-15.494l7.1582 6.4766 2.6836-2.9648-10.5-9.5-1.3418-1.2176z" fill="#d3dae3"/>
 </g>
 <g id="go-previous" transform="matrix(0 1 1 0 96 -4.2271e-6)">
  <path d="m1.3182e-6 -4.7729e-6v32h32v-32z" opacity=".001"/>
  <path d="m14.658 6.5176-10.5 9.5 2.6836 2.9648 7.1582-6.4766v15.494h4v-15.494l7.1582 6.4766 2.6836-2.9648-10.5-9.5-1.3418-1.2176z" fill="#d3dae3"/>
 </g>
 <g id="go-next" transform="rotate(90 80 80)">
  <path d="m1.3182e-6 -4.7729e-6v32h32v-32z" opacity=".001"/>
  <path d="m14.658 6.5176-10.5 9.5 2.6836 2.9648 7.1582-6.4766v15.494h4v-15.494l7.1582 6.4766 2.6836-2.9648-10.5-9.5-1.3418-1.2176z" fill="#d3dae3"/>
 </g>
</svg>
